X: 1
T: Fair-haired Boy, The
M: 6/8
L: 1/8
R: jig
K: Ador
EAA EAA | gfg edB | BAB edB | BAB GED |
EAA EAA | gfg edB | BAB edB |1 BAG A2 G:|2 BAG ABd ||
e2 a bag | eaf ged | BAB edB | BAG GED |
e2 a bag | eaf ged | BAB edB | BAG A B/2 c/2 d |
e2 a bag | eaf ged | BAB edB | BAB GED |
EAA EAA | gfg edB | BAB edB | BAG A3 ||
